src/images/icon/caret_arrow_down.svg

<svg height="20" viewBox="0 0 20 20" width="20" xmlns="http://www.w3.org/2000/svg"><path d="m5.92318723 8.78033009 3.36970599 3.36970601c.39052429.3905243 1.02368928.3905243 1.41421358 0l3.369706-3.36970601c.2928932-.29289322.2928932-.76776696 0-1.06066018-.1406523-.14065228-.3314177-.21966991-.5303301-.21966991h-7.09296539c-.41421356 0-.75.33578644-.75.75 0 .19891237.07901763.3896778.21966992.53033009z" fill="#36435c" fill-rule="evenodd"/></svg>

<?xml version="1.0" encoding="UTF-8"?>
<svg width="20px" height="20px" viewBox="0 0 20 20" version="1.1" xmlns="http://www.w3.org/2000/svg" xmlns:xlink="http://www.w3.org/1999/xlink">
    <g id="Dashboard" stroke="none" stroke-width="1" fill="none" fill-rule="evenodd">
        <g id="00-切图" transform="translate(-1299.000000, -299.000000)" fill="#36435C">
            <g id="Arrows/Caret-Down" transform="translate(1299.000000, 299.000000)">
                <path d="M5.92318723,8.78033009 L9.29289322,12.1500361 C9.68341751,12.5405604 10.3165825,12.5405604 10.7071068,12.1500361 L14.0768128,8.78033009 C14.369706,8.48743687 14.369706,8.01256313 14.0768128,7.71966991 C13.9361605,7.57901763 13.7453951,7.5 13.5464827,7.5 L6.45351731,7.5 C6.03930375,7.5 5.70351731,7.83578644 5.70351731,8.25 C5.70351731,8.44891237 5.78253494,8.6396778 5.92318723,8.78033009 Z" id="Path"></path>
            </g>
        </g>
    </g>
</svg>
